src/lib/packages/icons/src/assets/line/floppy-disk.svg

<svg width="24" height="24" viewBox="0 0 24 24" fill="none" xmlns="http://www.w3.org/2000/svg">
<path d="M21.0911 6.03003L17.97 2.90894C17.551 2.48994 16.9709 2.25 16.3789 2.25H6C3.582 2.25 2.25 3.582 2.25 6V18C2.25 20.418 3.582 21.75 6 21.75H18C20.418 21.75 21.75 20.418 21.75 18V7.62109C21.75 7.02909 21.5101 6.44903 21.0911 6.03003ZM16.25 20.25H7.75V14.5C7.75 13.911 7.911 13.75 8.5 13.75H15.5C16.089 13.75 16.25 13.911 16.25 14.5V20.25ZM20.25 18C20.25 19.577 19.577 20.25 18 20.25H17.75V14.5C17.75 13.091 16.909 12.25 15.5 12.25H8.5C7.091 12.25 6.25 13.091 6.25 14.5V20.25H6C4.423 20.25 3.75 19.577 3.75 18V6C3.75 4.423 4.423 3.75 6 3.75H16.3789C16.5759 3.75 16.7699 3.82997 16.9089 3.96997L20.03 7.09106C20.17 7.23106 20.25 7.42409 20.25 7.62109V18ZM15.25 8C15.25 8.414 14.914 8.75 14.5 8.75H9.5C9.086 8.75 8.75 8.414 8.75 8C8.75 7.586 9.086 7.25 9.5 7.25H14.5C14.914 7.25 15.25 7.586 15.25 8Z" fill="currentColor"/>
</svg>

<svg xmlns="http://www.w3.org/2000/svg" width="24" height="24" fill="none"><path fill="currentColor" d="M21.091 6.03 17.97 2.909c-.419-.42-1-.659-1.591-.659H6C3.582 2.25 2.25 3.582 2.25 6v12c0 2.418 1.332 3.75 3.75 3.75h12c2.418 0 3.75-1.332 3.75-3.75V7.621c0-.592-.24-1.172-.659-1.591ZM16.25 20.25h-8.5V14.5c0-.589.161-.75.75-.75h7c.589 0 .75.161.75.75v5.75Zm4-2.25c0 1.577-.673 2.25-2.25 2.25h-.25V14.5c0-1.409-.841-2.25-2.25-2.25h-7c-1.409 0-2.25.841-2.25 2.25v5.75H6c-1.577 0-2.25-.673-2.25-2.25V6c0-1.577.673-2.25 2.25-2.25h10.379c.197 0 .39.08.53.22l3.121 3.121c.14.14.22.333.22.53V18Zm-5-10a.75.75 0 0 1-.75.75h-5a.75.75 0 0 1 0-1.5h5a.75.75 0 0 1 .75.75Z"/></svg>
